icons/survey-line.svg

<svg width="24" height="24" fill="none" xmlns="http://www.w3.org/2000/svg"><g clip-path="url(#a)"><path d="M17 2v2h3.007c.548 0 .993.445.993.993v16.014a.994.994 0 0 1-.993.993H3.993A.994.994 0 0 1 3 21.007V4.993C3 4.445 3.445 4 3.993 4H7V2h10ZM7 6H5v14h14V6h-2v2H7V6Zm2 10v2H7v-2h2Zm0-3v2H7v-2h2Zm0-3v2H7v-2h2Zm6-6H9v2h6V4Z" /></g><defs><clipPath id="a"><path fill="#fff" d="M0 0h24v24H0z"/></clipPath></defs></svg>

<svg xmlns="http://www.w3.org/2000/svg" width="24" height="24" fill="none"><g clip-path="url(#a)"><g><path fill="#121212" d="M17 2V4H20.007C20.555 4 21 4.445 21 4.993V21.007C21 21.555 20.555 22 20.007 22H3.993C3.445 22 3 21.555 3 21.007V4.993C3 4.445 3.445 4 3.993 4H7V2H17ZM7 6H5V20H19V6H17V8H7V6ZM9 16V18H7V16H9ZM9 13V15H7V13H9ZM9 10V12H7V10H9ZM15 4H9V6H15V4Z"/></g></g><defs><clipPath id="a"><rect width="24" height="24" fill="white"/></clipPath></defs></svg>
